!!!OTL: Abschied.
!!!ARE: Europa, Mitteleuropa, Deutschland
!!!SCT: A0257
!!!TXL: @@G<H
!!!YEM: Copyright 1995, estate of Helmut Schaffrath.
**kern	**text
!! Mixed meters:  4/2; 6/2
*M4/2	*
*met(c|)	*
*clefC3	*
*k[]	*
*C:ion	*
=1	=1
!LO:TX:a:t=jon.	!
1ryy	.
2ryy	.
{2c	Ent-
=2	=2
2c	-lau-
2c	-bet
2c	iſt
2c	der
=3	=3
*M6/2	*
1B	wal-
1G	-de
1d	gegn
=4	=4
1e	di-
2d	-ſem
1c	win-
4B	.
4A	.
=5	=5
*M4/2	*
2B	.
2c/	.
1A	-ter
=6	=6
1.G}	kalt,
{2c	Be-
=7	=7
2c	-raubt
2c	werd
2c	ich
2c	ſo
=8	=8
*M6/2	*
1B	bal-
1G	-de
1d	meins
=9	=9
1e	feins-
2d	-lieb,
1c	macht
4B	.
4A	.
=10	=10
*M4/2	*
2B	.
2c/	.
1A	mich
=11	=11
1.G}	alt,
{2g	das
=12	=12
2f	ich
2e	die
2d	ſchönſt
2c	muß
=13	=13
1.f	mei-
4e	.
4d	.
=14	=14
*M6/2	*
1e	.
1d	-den,
2r}	.
{2d	die
=15	=15
*M4/2	*
1g	mir
2f	ge-
2.e	-fal-
=16	=16
.	.
4d	.
1d	.
2c	-len
=17	=17
1d	thůt,
2r}	.
{2G	bringt
=18	=18
2c	mir
2d	das
2e	heymlich
2f	.
=19	=19
*M6/2	*
1g	lei-
1d}	-den
{1f	vnd
=20	=20
1e	macht
2d	mir
1g	ſchwe-
4f	.
4e	.
=21	=21
*M4/2	*
2f	.
2e	.
1d	-ren
=22	=22
0cll}	můt.
==	==
!!!GTL: Abschieds- und Wanderlieder
!!!AGN: Romanze, Ballade, Lied
!! Gassenhawerlein 1535 No. 1.
!!!ONB: ESAC (Essen Associative Code) Database: ALTDEU
!!!AMT: irregular
!!!AIN: vox
!!!EED: Helmut Schaffrath
!!!EEV: 1.0
!!!RDF**kern: l = terminal long
!!!AMD: Ionian
!!!URL-scan: https://rosdok.uni-rostock.de/mcrviewer/recordIdentifier/rosdok_ppn738218359/iview2/phys_0407.iview2?x=-495.6391625615763&y=1235.5763546880335&scale=0.4629418472063854&rotation=0&layout=singlePageLayout&logicalDiv=log_0010
!!!ENC: Anna Maria Matuszewska
!!!EEV: 2024/11/03
*-	*-
